packages/foundations/assets/icons/functional/images/social/crown_20.svg

<svg width="20" height="20" viewBox="0 0 20 20" fill="none" xmlns="http://www.w3.org/2000/svg">
<g clip-path="url(#clip0_187_334)">
<path fill-rule="evenodd" clip-rule="evenodd" d="M15.4991 16C16.0514 16 16.4991 16.4478 16.4991 17C16.4991 17.5129 16.0912 18 15.4991 18H4.49914C3.94686 18 3.49914 17.5523 3.49914 17C3.49914 16.4872 3.92727 16 4.49914 16H15.4991ZM9.10471 2.55273C9.45384 1.85447 10.4162 1.81772 10.8299 2.44248L12.8861 6.53904L16.4444 4.16799C17.1318 3.70976 18.1039 4.25488 17.9938 5.10818C17.3762 7.92595 16.7033 10.9622 15.9753 14.2169C15.8821 14.6363 15.5334 14.9448 15.1149 14.9933L4.99914 14.9999C4.5695 14.9999 4.1927 14.7264 4.05457 14.3284L2.02296 5.21698C1.8356 4.37389 2.72466 3.72423 3.45903 4.11153L7.11114 6.53904L9.10471 2.55273ZM9.99914 5.23605L8.39357 8.44725C8.14251 8.94939 7.53372 9.14009 7.04675 8.89202L4.51514 7.21304L5.80114 12.999H14.1961L15.4821 7.21304L13.0538 8.8321C12.6201 9.12126 11.9439 9.03177 11.6638 8.55004C11.1332 7.49957 10.5783 6.3949 9.99914 5.23605Z" fill="#1A1C1F"/>
</g>
<defs>
<clipPath id="clip0_187_334">
<rect width="20" height="20" fill="white"/>
</clipPath>
</defs>
</svg>

<svg xmlns="http://www.w3.org/2000/svg" width="20" height="20" fill="none"><g clip-path="url(#a)"><path fill="#1A1C1F" fill-rule="evenodd" d="M15.5 16a1 1 0 0 1 0 2h-11a1 1 0 0 1-1-1c0-.513.427-1 1-1zM9.104 2.553a1 1 0 0 1 1.725-.11l2.056 4.096 3.558-2.371c.688-.458 1.66.087 1.55.94q-.926 4.227-2.019 9.109a1 1 0 0 1-.86.776L4.999 15a1 1 0 0 1-.944-.672L2.023 5.217c-.187-.843.702-1.493 1.436-1.105l3.652 2.427zm.894 2.683L8.394 8.447a1 1 0 0 1-1.347.445L4.515 7.213l1.286 5.786h8.395l1.286-5.786-2.428 1.62c-.434.288-1.11.199-1.39-.283a872 872 0 0 1-1.665-3.314" clip-rule="evenodd"/></g><defs><clipPath id="a"><path fill="#fff" d="M0 0h20v20H0z"/></clipPath></defs></svg>
